!!!OTL: VOR DER THUERE MEINER LIEBEN
!!!ARE: Europa, Mitteleuropa, Deutschland
!!!SCT: B0540
!!!YEM: Copyright 1995, estate of Helmut Schaffrath.
**kern
*ICvox
*Ivox
*M3/4
*k[b-e-]
*B-:
{8.f
16f
=1
4b-
4f
8.b-
16cc
=2
4dd
4b-}
{8a
8g
=3
8.f
16d
4.g
8e-
=4
2d
4r}
=5
{8.d
16d
8en
8f#
8g
8a
=6
4cc
4b-}
{8a
8g
=7
8.g
16f
4.dd
8cc
=8
4b-
4r}
==
!!!AGN: Wander -, Heimat - Lied
!!!ONB: ESAC (Essen Associative Code) Database: BOEHME
!!!AMT: simple triple
!!!AIN: vox
!!!EED: Helmut Schaffrath
!!!EEV: 1.0
*-
